X:1
T:I glory in the word of God
T:John Arnold
T:Text: John Hopkins, on Ps. 56.
T:This edition by Edmund Gooch released into the public domain, December 2013.
T:I glory in the word of God
T:PSALM LVI, Verse 10, 11, 12, 13.
C:John Arnold
Z:Text: John Hopkins, on Ps. 56.
%%score [ 1 2 3 4 ]
L:1/8
M:3/2
K:G
V:1 treble nm="SOPRANO" snm="S."
V:2 treble nm="ALTO" snm="A."
V:3 treble-8 transpose=-12 nm="TENOR" snm="T."
V:4 bass nm="BASS" snm="B."
V:1
 G4 | G8 G4 | A8 B4 | (A4 G4) F4 | G8 A4 | (G3 A B4) A4 | A8 G4 | F8 A4 | (B3 A G4) G4 | %9
w: I|will per-|form with|heart _ most|free My|vows _ _ to|God al-|ways; And|I, _ _ O|
w: I|glo- ry|in the|word _ of|God, To|praise _ _ it|I ac-|cord; With|joy _ _ I|
w: I|trust in|God the|Lord, _ and|say, As|I _ _ be-|fore be-|gan: The|Lord _ _ he|
 (G3 A B4) d4 | (d3 c B4) A4 | A8 G4 | G8 B4 | A4 (G4 F4) | G8 |] %15
w: Lord, _ _ all|times _ _ to|thee Will|of- fer|thanks and _|praise.|
w: will _ _ de-|clare _ _ a-|broad The|pro- mise|of the _|Lord.|
w: is _ _ my|help _ _ and|stay, I|do not|care for _|man.|
V:2
 D4 | D8 E4 | F8 G4 | E8 D4 | D8 F4 | G8 F4 | E8 D4 | D8 D4 | D8 D4 | (D4 E4) F4 | G8 E4 | F8 D4 | %12
w: I|will per-|form with|heart most|free My|vows to|God al-|ways; And|I, O|Lord, _ all|times to|thee Will|
w: I|glo- ry|in the|word of|God, To|praise it|I ac-|cord; With|joy I|will _ de-|clare a-|broad The|
w: I|trust in|God the|Lord, and|say, As|I be-|fore be-|gan: The|Lord he|is _ my|help and|stay, I|
 (E3 F G4) G4 | E4 D8 | D8 |] %15
w: of- * * fer|thanks and|praise.|
w: pro- * * mise|of the|Lord.|
w: do _ _ not|care for|man.|
V:3
 G4 | (B3 c B3 A) G4 | (d3 e d3 c) B4 | (c4 B4) A4 | B8 d4 | (B3 A G4) (A2 B2) | c8 B4 | A8 d4 | %8
w: I|will _ _ _ per-|form _ _ _ with|heart _ most|free My|vows _ _ to _|God al-|ways; And|
w: I|glo- * * * ry|in _ _ _ the|word _ of|God, To|praise _ _ it _|I ac-|cord; With|
w: I|trust _ _ _ in|God _ _ _ the|Lord, _ and|say, As|I _ _ be- *|fore be-|gan: The|
 (d3 c B4) B4 | (B3 A G4) A4 | (B3 c d4) ^c4 | d8 B4 | c8 d4 | (e2 dc) (B4 A4) | G8 |] %15
w: I, _ _ O|Lord, _ _ all|times _ _ to|thee Will|of- fer|thanks _ _ and _|praise.|
w: joy _ _ I|will _ _ de-|clare _ _ a-|broad The|pro- mise|of _ _ the _|Lord.|
w: Lord _ _ he|is _ _ my|help _ _ and|stay, I|do not|care _ _ for _|man.|
V:4
 G,,4 | G,8 E,4 | D,8 G,4 | C,8 D,4 | G,,8 D,4 | (E,3 F, G,4) D,4 | C,8 G,4 | D,8 D,4 | %8
w: I|will per-|form with|heart most|free My|vows _ _ to|God al-|ways; And|
w: I|glo- ry|in the|word of|God, To|praise _ _ it|I ac-|cord; With|
w: I|trust in|God the|Lord, and|say, As|I _ _ be-|fore be-|gan: The|
"^Notes: Original clefs are treble, alto, tenor and bass. The text of the first verse only is underlaid in the source,with the three subsequent verses given here printed after the music: these have been underlaid editorially." G,8 G,4 | %9
w: I, O|
w: joy I|
w: Lord he|
 (G,3 F, E,4) D,4 | G,8 A,4 | D,8 G,4 | C,8 B,,4 | C,4 D,8 | G,,8 |] %15
w: Lord, _ _ all|times to|thee Will|of- fer|thanks and|praise.|
w: will _ _ de-|clare a-|broad The|pro- mise|of the|Lord.|
w: is _ _ my|help and|stay, I|do not|care for|man.|

